src/assets/icons/free-shipping.svg

<svg width="66" height="25" viewBox="0 0 66 25" fill="none" xmlns="http://www.w3.org/2000/svg">
<path fill-rule="evenodd" clip-rule="evenodd" d="M0 5.72075H3.16834V7.59268H0V5.72075ZM0 17.1443H1.74269V19.0163H0V17.1443ZM47.4365 2.85735H38.9311V0.00605802L1.29858 0V1.87193H9.89083V5.70869H4.17231V7.57256H9.89083V11.4093H4.17231V13.2752H9.89083V17.112H2.73209V18.9758H15.6093C15.7244 21.3587 17.7034 23.2629 20.1186 23.2629C22.5337 23.2629 24.5126 21.3647 24.6257 18.9758H39.9404C40.0555 21.3587 42.0325 23.2629 44.4476 23.2629C46.8648 23.2629 48.8417 21.3647 48.9568 18.9758H51.6951V11.8941L47.4365 2.85735ZM43.2242 4.71517H46.1502L49.2398 11.4092H43.2241L43.2242 4.71517ZM20.119 21.391C18.6106 21.391 17.4817 20.2581 17.4817 18.7618C17.4817 17.2595 18.6186 16.1327 20.119 16.1327C21.6194 16.1327 22.7563 17.2857 22.7563 18.8083C22.7563 20.3046 21.6457 21.391 20.119 21.391V21.391ZM24.3112 17.112C23.6367 15.4016 21.9688 14.2668 20.111 14.2668C18.2613 14.2668 16.5993 15.4016 15.9127 17.112H11.7408V1.86403H37.0471L37.0612 17.112H24.3112ZM44.4278 21.391C42.9214 21.391 41.7905 20.2581 41.7905 18.7618C41.7905 17.2595 42.9274 16.1327 44.4278 16.1327C45.9282 16.1327 47.0671 17.2857 47.0671 18.8083C47.0732 20.3046 45.9626 21.391 44.4278 21.391V21.391ZM49.8114 17.1059H48.628C47.9535 15.3935 46.2856 14.2607 44.4278 14.2607C42.5781 14.2607 40.9161 15.3935 40.2296 17.1059H38.917V4.71512H41.3402V13.267H49.8115L49.8114 17.1059Z" fill="currentColor"/>
<rect x="0.943359" y="23.6641" width="65" height="1.33493" fill="currentColor"/>
</svg>

<svg xmlns="http://www.w3.org/2000/svg" width="80" height="25" fill="none" viewBox="0 0 80 25">
  <defs/>
  <path fill="currentColor" fill-rule="evenodd" d="M0 5.72h3.168v1.873H0V5.72zm0 11.424h1.743v1.872H0v-1.872zM47.437 2.857H38.93V.007L1.3 0v1.872H9.89v3.837H4.172v1.864h5.719v3.836H4.172v1.866h5.719v3.837H2.732v1.864H15.61a4.517 4.517 0 004.51 4.287 4.51 4.51 0 004.507-4.287H39.94a4.516 4.516 0 004.508 4.287 4.512 4.512 0 004.509-4.287h2.738v-7.082l-4.258-9.037zm-4.213 1.858h2.926l3.09 6.694h-6.016V4.715zM20.12 21.391c-1.508 0-2.637-1.133-2.637-2.63 0-1.502 1.137-2.628 2.637-2.628s2.637 1.153 2.637 2.675c0 1.497-1.11 2.583-2.637 2.583zm4.192-4.279a4.515 4.515 0 00-4.2-2.845 4.533 4.533 0 00-4.198 2.845H11.74V1.864h25.306l.014 15.248h-12.75zm20.117 4.279c-1.507 0-2.637-1.133-2.637-2.63 0-1.502 1.136-2.628 2.637-2.628 1.5 0 2.64 1.153 2.64 2.675.005 1.497-1.105 2.583-2.64 2.583zm5.383-4.285h-1.183a4.512 4.512 0 00-4.2-2.845 4.53 4.53 0 00-4.198 2.845h-1.313V4.716h2.423v8.551h8.471v3.839z" clip-rule="evenodd"/>
  <path fill="currentColor" d="M.945 23.664H79.54v1.335H.945z"/>
</svg>
